_icons/SVG/206-dunsparce-shiny.svg

<svg xmlns="http://www.w3.org/2000/svg" width="32" height="32"><path fill="#F0C13E" d="M16 0c-.438 0-2.5 2.375-2.5 4 0 1.626.812 3 2.5 3V0z"/><path fill="#F7C845" d="M13.548 3.66c-.018.114-.048.232-.048.34 0 1.626.812 3 2.5 3V2.188c-1.187 0-1.995.59-2.452 1.472z"/><path fill="#FFD04D" d="M16 5.5V20c-4.971 0-7-2.315-7-6 0-4.938 6-4.375 6-8.5h1z"/><path fill="#FDF2D2" d="M9.521 11.795C9.197 12.39 9 13.104 9 14c0 3.685 2.029 6 7 6V9.562c-2.813 0-5.063.876-6.479 2.233z"/><path fill="#FFD96C" d="M16 9.562V20c-4.971 0-7-2.315-7-6 0-.896.197-1.61.521-2.205 1.416-1.357 3.666-2.233 6.479-2.233z"/><path fill="#FFD04D" d="M13.917 5.781C14.316 6.512 15.001 7 16 7V4.562c-.999 0-1.684.489-2.083 1.219z"/><path fill="#E8BA36" d="M16 0c.438 0 2.5 2.375 2.5 4 0 1.626-.812 3-2.5 3V0z"/><path fill="#F0C13E" d="M18.452 3.66c.018.114.048.232.048.34 0 1.626-.812 3-2.5 3V2.188c1.187 0 1.995.59 2.452 1.472z"/><path fill="#F7C845" d="M17 5.5c0 4.125 6 3.562 6 8.5 0 3.685-2.029 6-7 6V5.5h1z"/><path fill="#FDF2D2" d="M22.479 11.795c.324.595.521 1.309.521 2.205 0 3.685-2.029 6-7 6V9.562c2.812 0 5.062.876 6.479 2.233z"/><path fill="#FFD04D" d="M22.479 11.795c.324.595.521 1.309.521 2.205 0 3.685-2.029 6-7 6V9.562c2.812 0 5.062.876 6.479 2.233z"/><path fill="#DD7AAE" d="M22.977 13.599c-1.613-1.359-4.014-2.224-6.977-2.224s-5.365.865-6.977 2.224c-.01.132-.023.26-.023.401 0 3.685 2.029 6 7 6s7-2.315 7-6c0-.141-.013-.269-.023-.401z"/><path fill="#E583B2" d="M9 14c0 3.685 2.029 6 7 6v-8.625c-2.964 0-5.365.865-6.977 2.224-.01.132-.023.26-.023.401z"/><path fill="#F7C845" d="M18.083 5.781C17.684 6.512 16.999 7 16 7V4.562c.999 0 1.684.489 2.083 1.219z"/><path fill="#FFD96C" d="M16 13.125c-2.871 0-5.235.773-6.924 2.006C9.473 18.15 11.561 20 16 20s6.527-1.85 6.924-4.869c-1.689-1.233-4.053-2.006-6.924-2.006z"/><path fill="#FFE28A" d="M16 20v-6.875c-2.871 0-5.235.773-6.924 2.006C9.473 18.15 11.561 20 16 20z"/><path fill="#E583B2" d="M16 14.938c-2.645 0-4.852.661-6.505 1.729C10.346 18.756 12.382 20 16 20s5.654-1.244 6.505-3.334c-1.653-1.067-3.86-1.728-6.505-1.728z"/><path fill="#EA8BB4" d="M16 20v-5.062c-2.645 0-4.852.661-6.505 1.729C10.346 18.756 12.382 20 16 20z"/><path fill="#E3E5E5" d="M21.013 19.542c-.029-1.643 1.304-5.015 4.44-7.121 1.932-1.297 4.844-2.105 5.478-.548.849 2.085-6.314 6.573-9.918 7.669z"/><path fill="#D1D4D4" d="M29.373 15.159c-.373-1.451-3.211-.744-5.218.432-1.672.98-3.056 2.998-3.171 3.95 3.545-.403 8.913-2.346 8.389-4.382z"/><path fill="#EDEEEE" d="M1.069 11.873c.634-1.557 3.546-.75 5.478.548 3.136 2.106 4.469 5.478 4.44 7.121C7.383 18.446.22 13.958 1.069 11.873z"/><path fill="#DADDDC" d="M2.627 15.159c.373-1.451 3.211-.744 5.218.433 1.672.98 3.056 2.998 3.171 3.95-3.545-.404-8.913-2.347-8.389-4.383z"/><ellipse fill="#FFE28A" cx="16" cy="23.328" rx="9" ry="6.672"/><path fill="#FFEAA7" d="M16 16.656V30c-4.971 0-9-2.987-9-6.672s4.029-6.672 9-6.672z"/><path fill="#F297BE" d="M16 26.188c-3.5 0-3.688 2.19-5.883 2.19a9.826 9.826 0 002.021.977l.876 2.479a.25.25 0 00.471 0l.698-1.974c.588.089 1.194.14 1.817.14s1.229-.051 1.817-.141l.698 1.974a.25.25 0 00.471 0l.876-2.479a9.775 9.775 0 002.021-.977c-2.196.001-2.383-2.189-5.883-2.189z"/><path fill="#F8A1C4" d="M16 26.188c-3.5 0-3.688 2.19-5.883 2.19a9.826 9.826 0 002.021.977l.876 2.479a.25.25 0 00.471 0l.698-1.974c.588.089 1.194.14 1.817.14v-3.812z"/><path fill="#F297BE" d="M7 23.328c0 1.338.512 2.566 1.452 3.626C10.445 26.727 12 25.054 12 23c0-1.862-1.283-3.419-3.006-3.865C7.746 20.28 7 21.741 7 23.328z"/><path fill="#FEF1C6" d="M7.006 23h3.744A2.75 2.75 0 018 25.75c-.137 0-.28-.019-.412-.038A5.167 5.167 0 017 23.328c0-.111-.001-.219.006-.328z"/><path fill="#FFF5D8" d="M7.006 23h3.744c0-1.512-1.24-2.731-2.75-2.741-.601.783-.929 1.753-.994 2.741z"/><path fill="#EA8BB4" d="M25 23.328c0 1.338-.512 2.566-1.452 3.626C21.555 26.727 20 25.054 20 23c0-1.862 1.283-3.419 3.006-3.865C24.254 20.28 25 21.741 25 23.328z"/><path fill="#FFEAA7" d="M25 23.328c0 .84-.206 1.643-.588 2.384a2.948 2.948 0 01-.412.038A2.75 2.75 0 0121.25 23h3.744c.007.109.006.217.006.328z"/><path fill="#FEF1C6" d="M24.994 23H21.25c0-1.512 1.24-2.731 2.75-2.741.601.783.929 1.753.994 2.741z"/></svg>

<?xml version="1.0" encoding="utf-8"?>
<!-- Generator: Adobe Illustrator 23.0.6, SVG Export Plug-In . SVG Version: 6.00 Build 0)  -->
<svg version="1.1" xmlns="http://www.w3.org/2000/svg" xmlns:xlink="http://www.w3.org/1999/xlink" x="0px" y="0px" width="32px"
	 height="32px" viewBox="0 0 32 32" enable-background="new 0 0 32 32" xml:space="preserve">
<g id="labels">
	<g>
	</g>
</g>
<g id="icons">
	<g>
		<path fill="#F0C13E" d="M16,0c-0.438,0-2.5,2.375-2.5,4c0,1.626,0.812,3,2.5,3V0z"/>
		<path fill="#F7C845" d="M13.548,3.66C13.53,3.774,13.5,3.892,13.5,4c0,1.626,0.812,3,2.5,3V2.188
			C14.813,2.188,14.005,2.778,13.548,3.66z"/>
		<path fill="#FFD04D" d="M16,5.5V20c-4.971,0-7-2.315-7-6c0-4.938,6-4.375,6-8.5C15.562,5.5,16,5.5,16,5.5z"/>
		<g>
			<path fill="#FDF2D2" d="M9.521,11.795C9.197,12.39,9,13.104,9,14c0,3.685,2.029,6,7,6V9.562
				C13.187,9.562,10.937,10.438,9.521,11.795z"/>
		</g>
		<path fill="#FFD96C" d="M16,9.562V20c-4.971,0-7-2.315-7-6c0-0.896,0.197-1.61,0.521-2.205C10.937,10.438,13.187,9.562,16,9.562z"
			/>
		<path fill="#FFD04D" d="M13.917,5.781C14.316,6.512,15.001,7,16,7V4.562C15.001,4.562,14.316,5.051,13.917,5.781z"/>
		<path fill="#E8BA36" d="M16,0c0.438,0,2.5,2.375,2.5,4c0,1.626-0.812,3-2.5,3V0z"/>
		<path fill="#F0C13E" d="M18.452,3.66C18.47,3.774,18.5,3.892,18.5,4c0,1.626-0.812,3-2.5,3V2.188
			C17.187,2.188,17.995,2.778,18.452,3.66z"/>
		<path fill="#F7C845" d="M17,5.5c0,4.125,6,3.562,6,8.5c0,3.685-2.029,6-7,6V5.5C16,5.5,16.438,5.5,17,5.5z"/>
		<g>
			<path fill="#FDF2D2" d="M22.479,11.795C22.803,12.39,23,13.104,23,14c0,3.685-2.029,6-7,6V9.562
				C18.812,9.562,21.062,10.438,22.479,11.795z"/>
		</g>
		<path fill="#FFD04D" d="M22.479,11.795C22.803,12.39,23,13.104,23,14c0,3.685-2.029,6-7,6V9.562
			C18.812,9.562,21.062,10.438,22.479,11.795z"/>
		<g>
			<path fill="#DD7AAE" d="M22.977,13.599c-1.613-1.359-4.014-2.224-6.977-2.224s-5.365,0.865-6.977,2.224
				C9.013,13.731,9,13.859,9,14c0,3.685,2.029,6,7,6s7-2.315,7-6C23,13.859,22.987,13.731,22.977,13.599z"/>
			<path fill="#E583B2" d="M9,14c0,3.685,2.029,6,7,6v-8.625c-2.964,0-5.365,0.865-6.977,2.224C9.013,13.731,9,13.859,9,14z"/>
		</g>
		<path fill="#F7C845" d="M18.083,5.781C17.684,6.512,16.999,7,16,7V4.562C16.999,4.562,17.684,5.051,18.083,5.781z"/>
		<g>
			<path fill="#FFD96C" d="M16,13.125c-2.871,0-5.235,0.773-6.924,2.006C9.473,18.15,11.561,20,16,20s6.527-1.85,6.924-4.869
				C21.235,13.898,18.871,13.125,16,13.125z"/>
			<path fill="#FFE28A" d="M16,20v-6.875c-2.871,0-5.235,0.773-6.924,2.006C9.473,18.15,11.561,20,16,20z"/>
		</g>
		<g>
			<path fill="#E583B2" d="M16,14.938c-2.645,0-4.852,0.661-6.505,1.729C10.346,18.756,12.382,20,16,20s5.654-1.244,6.505-3.334
				C20.852,15.599,18.645,14.938,16,14.938z"/>
			<path fill="#EA8BB4" d="M16,20v-5.062c-2.645,0-4.852,0.661-6.505,1.729C10.346,18.756,12.382,20,16,20z"/>
		</g>
		<path fill="#E3E5E5" d="M21.013,19.542c-0.029-1.643,1.304-5.015,4.44-7.121c1.932-1.297,4.844-2.105,5.478-0.548
			C31.78,13.958,24.617,18.446,21.013,19.542z"/>
		<path fill="#D1D4D4" d="M29.373,15.159c-0.373-1.451-3.211-0.744-5.218,0.432c-1.672,0.98-3.056,2.998-3.171,3.95
			C24.529,19.138,29.897,17.195,29.373,15.159z"/>
		<path fill="#EDEEEE" d="M1.069,11.873c0.634-1.557,3.546-0.75,5.478,0.548c3.136,2.106,4.469,5.478,4.44,7.121
			C7.383,18.446,0.22,13.958,1.069,11.873z"/>
		<path fill="#DADDDC" d="M2.627,15.159C3,13.708,5.838,14.415,7.845,15.592c1.672,0.98,3.056,2.998,3.171,3.95
			C7.471,19.138,2.103,17.195,2.627,15.159z"/>
		<g>
			<ellipse fill="#FFE28A" cx="16" cy="23.328" rx="9" ry="6.672"/>
			<path fill="#FFEAA7" d="M16,16.656V30c-4.971,0-9-2.987-9-6.672S11.029,16.656,16,16.656z"/>
		</g>
		<g>
			<path fill="#F297BE" d="M16,26.188c-3.5,0-3.688,2.19-5.883,2.19c0.608,0.389,1.288,0.718,2.021,0.977l0.876,2.479
				c0.079,0.222,0.393,0.222,0.471,0l0.698-1.974C14.771,29.949,15.377,30,16,30s1.229-0.051,1.817-0.141l0.698,1.974
				c0.079,0.222,0.393,0.222,0.471,0l0.876-2.479c0.733-0.259,1.413-0.587,2.021-0.977C19.687,28.378,19.5,26.188,16,26.188z"/>
			<path fill="#F8A1C4" d="M16,26.188c-3.5,0-3.688,2.19-5.883,2.19c0.608,0.389,1.288,0.718,2.021,0.977l0.876,2.479
				c0.079,0.222,0.393,0.222,0.471,0l0.698-1.974C14.771,29.949,15.377,30,16,30V26.188z"/>
		</g>
		<g>
			<g>
				<path fill="#F297BE" d="M7,23.328c0,1.338,0.512,2.566,1.452,3.626C10.445,26.727,12,25.054,12,23
					c0-1.862-1.283-3.419-3.006-3.865C7.746,20.28,7,21.741,7,23.328z"/>
				<path fill="#FEF1C6" d="M7.006,23h3.744c0,1.519-1.231,2.75-2.75,2.75c-0.137,0-0.28-0.019-0.412-0.038
					C7.206,24.971,7,24.168,7,23.328C7,23.217,6.999,23.109,7.006,23z"/>
				<path fill="#FFF5D8" d="M7.006,23h3.744c0-1.512-1.24-2.731-2.75-2.741C7.399,21.042,7.071,22.012,7.006,23z"/>
			</g>
			<g>
				<path fill="#EA8BB4" d="M25,23.328c0,1.338-0.512,2.566-1.452,3.626C21.555,26.727,20,25.054,20,23
					c0-1.862,1.283-3.419,3.006-3.865C24.254,20.28,25,21.741,25,23.328z"/>
				<path fill="#FFEAA7" d="M25,23.328c0,0.84-0.206,1.643-0.588,2.384C24.28,25.731,24.137,25.75,24,25.75
					c-1.519,0-2.75-1.231-2.75-2.75h3.744C25.001,23.109,25,23.217,25,23.328z"/>
				<path fill="#FEF1C6" d="M24.994,23H21.25c0-1.512,1.24-2.731,2.75-2.741C24.601,21.042,24.929,22.012,24.994,23z"/>
			</g>
		</g>
	</g>
</g>
</svg>
